packages/ffe-icons/icons/open/400/sm/sweep.svg

<svg xmlns="http://www.w3.org/2000/svg" height="20" viewBox="0 -960 960 960" width="20"><path d="M468-240q-15.3 0-25.65-10.289-10.35-10.29-10.35-25.5Q432-291 442.35-301.5 452.7-312 468-312h168q15.3 0 25.65 10.289 10.35 10.29 10.35 25.5Q672-261 661.65-250.5 651.3-240 636-240H468ZM243-342l353-353q10.909-11 25.455-11Q636-706 647-695q11 11 11 25.667 0 14.666-11 25.333L268-265q-10.636 11-24.818 11Q229-254 218-265L42-441q-11-10.667-10.5-25.333Q32-481 43-492q11-11 25.667-11Q83.333-503 94-492l149 150Zm369-54q-15.3 0-25.65-10.289-10.35-10.29-10.35-25.5Q576-447 586.35-457.5 596.7-468 612-468h168q15.3 0 25.65 10.289 10.35 10.29 10.35 25.5Q816-417 805.65-406.5 795.3-396 780-396H612Zm144-156q-15.3 0-25.65-10.289-10.35-10.29-10.35-25.5Q720-603 730.35-613.5 740.7-624 756-624h168q15.3 0 25.65 10.289 10.35 10.29 10.35 25.5Q960-573 949.65-562.5 939.3-552 924-552H756Z"/></svg>

<svg xmlns="http://www.w3.org/2000/svg" height="20" viewBox="0 -960 960 960" width="20"><path d="M468-240q-15.3 0-25.65-10.29Q432-260.58 432-275.79t10.35-25.71Q452.7-312 468-312h168q15.3 0 25.65 10.29Q672-291.42 672-276.21t-10.35 25.71Q651.3-240 636-240H468ZM243-342l353-353q10.91-11 25.45-11Q636-706 647-695t11 25.67q0 14.66-11 25.33L268-265q-10.64 11-24.82 11T218-265L42-441q-11-10.67-10.5-25.33Q32-481 43-492q11-11 25.67-11 14.66 0 25.33 11l149 150Zm369-54q-15.3 0-25.65-10.29Q576-416.58 576-431.79t10.35-25.71Q596.7-468 612-468h168q15.3 0 25.65 10.29Q816-447.42 816-432.21t-10.35 25.71Q795.3-396 780-396H612Zm144-156q-15.3 0-25.65-10.29Q720-572.58 720-587.79t10.35-25.71Q740.7-624 756-624h168q15.3 0 25.65 10.29Q960-603.42 960-588.21t-10.35 25.71Q939.3-552 924-552H756Z"/></svg>
